contributed-vectors/turtl_request.svg

<?xml version="1.0" encoding="UTF-8" standalone="no"?>
<svg
   xmlns:dc="http://purl.org/dc/elements/1.1/"
   xmlns:cc="http://creativecommons.org/ns#"
   xmlns:rdf="http://www.w3.org/1999/02/22-rdf-syntax-ns#"
   xmlns:svg="http://www.w3.org/2000/svg"
   xmlns="http://www.w3.org/2000/svg"
   xmlns:sodipodi="http://sodipodi.sourceforge.net/DTD/sodipodi-0.dtd"
   xmlns:inkscape="http://www.inkscape.org/namespaces/inkscape"
   sodipodi:docname="turtl_request.svg"
   inkscape:version="0.92.5 (2060ec1f9f, 2020-04-08)"
   version="1.1"
   id="svg2"
   viewBox="0 0 192 192"
   height="192"
   width="192"
   inkscape:export-filename="/home/creepertron/Icon References/Delta/png/turtl_request.png"
   inkscape:export-xdpi="96"
   inkscape:export-ydpi="96">
  <sodipodi:namedview
     inkscape:document-rotation="0"
     inkscape:window-maximized="1"
     inkscape:window-y="-2"
     inkscape:window-x="-12"
     inkscape:window-height="745"
     inkscape:window-width="1280"
     units="px"
     showgrid="true"
     inkscape:current-layer="layer1"
     inkscape:document-units="px"
     inkscape:cy="83.522138"
     inkscape:cx="97.522708"
     inkscape:zoom="2.8284272"
     inkscape:pageshadow="2"
     inkscape:pageopacity="0.0"
     borderopacity="1.0"
     bordercolor="#666666"
     pagecolor="#ffffff"
     id="base"
     inkscape:snap-bbox="false"
     inkscape:object-paths="true"
     inkscape:snap-nodes="true"
     showguides="true"
     inkscape:guide-bbox="true"
     inkscape:snap-object-midpoints="true"
     inkscape:snap-center="true"
     inkscape:snap-global="true"
     inkscape:snap-intersection-paths="true"
     inkscape:snap-smooth-nodes="true"
     inkscape:snap-midpoints="true">
    <inkscape:grid
       type="xygrid"
       id="grid1015" />
  </sodipodi:namedview>
  <defs
     id="defs4" />
  <metadata
     id="metadata7">
    <rdf:RDF>
      <cc:Work
         rdf:about="">
        <dc:format>image/svg+xml</dc:format>
        <dc:type
           rdf:resource="http://purl.org/dc/dcmitype/StillImage" />
        <dc:title></dc:title>
      </cc:Work>
    </rdf:RDF>
  </metadata>
  <g
     transform="translate(0,-860.36216)"
     id="layer1"
     inkscape:groupmode="layer"
     inkscape:label="Calque 1">
    <path
       id="rect985"
       style="fill:#728DBE;fill-opacity:1;fill-rule:evenodd;stroke:none;stroke-opacity:1"
       d="m 29.5,879.86218 h 133 c 5.54,0 10,4.46 10,10 v 133.00002 c 0,5.54 -4.46,10 -10,10 h -133 c -5.54,0 -10,-4.46 -10,-10 V 889.86218 c 0,-5.54 4.46,-10 10,-10 z" />
    <path
       style="fill:#ffffff;stroke-width:3.29758191"
       d="M 92.703125 59.726562 L 72.916016 72.916016 L 82.619141 82 L 92.404297 75 L 92.703125 59.726562 z M 99.296875 59.726562 L 99 75 L 109 82 L 119.08398 72.916016 L 99.296875 59.726562 z M 70.107422 79.404297 L 70.107422 79.619141 L 70.107422 112.38086 L 70.107422 112.5957 L 80 106 L 80 105.78516 L 80 86.214844 L 80 86 L 70.107422 79.404297 z M 121.89258 79.404297 L 112 86 L 112 86.214844 L 112 105.78516 L 112 106 L 121.89258 112.5957 L 121.89258 112.38086 L 121.89258 79.619141 L 121.89258 79.404297 z M 96 79.511719 L 86.107422 86.107422 L 86.107422 105.89258 L 96 112.48828 L 105.89258 105.89258 L 105.89258 86.107422 L 96 79.511719 z M 82.619141 110 L 72.916016 119.08203 L 92.703125 132.27344 L 92.404297 117 L 82.619141 110 z M 109 110 L 99 117 L 99.296875 132.27344 L 119.08398 119.08203 L 109 110 z "
       transform="translate(0,860.36216)"
       id="path865" />
  </g>
  <style
     type="text/css"
     id="style853">
	.st0{fill:#FFFFFF;}
</style>
  <style
     type="text/css"
     id="style907">
	.st0{fill:#898989;}
	.st1{fill:#FFFFFF;}
</style>
</svg>

<svg xmlns="http://www.w3.org/2000/svg" id="svg2" width="192" height="192" version="1.1"><g id="layer1" transform="translate(0 -860.362)"><path id="rect985" d="M29.5 879.862h133c5.54 0 10 4.46 10 10v133c0 5.54-4.46 10-10 10h-133c-5.54 0-10-4.46-10-10v-133c0-5.54 4.46-10 10-10z" style="fill:#728dbe;fill-opacity:1;fill-rule:evenodd;stroke:none;stroke-opacity:1"/><path id="path865" d="M92.703 59.727 72.916 72.916 82.619 82l9.785-7 .3-15.273zm6.594 0L99 75l10 7 10.084-9.084-19.787-13.19zm-29.19 19.677V112.596L80 106V86l-9.893-6.596zm51.786 0L112 86v20l9.893 6.596V79.404zM96 79.512l-9.893 6.595v19.786L96 112.488l9.893-6.595V86.107L96 79.512zM82.62 110l-9.704 9.082 19.787 13.191L92.404 117l-9.785-7zm26.38 0-10 7 .297 15.273 19.787-13.191L109 110z" style="fill:#fff;stroke-width:3.29758191" transform="translate(0 860.362)"/></g><style id="style853" type="text/css">.st0{fill:#898989}.st1{fill:#fff}</style></svg>
